X:1
T:Reflection  Rag
T:Reflection  Rag
T:SCOTT  JOPLIN
T:(SYNCOPATED  MUSINGS)
T:Public Domain
T:Public Domain
C:Scott Joplin
Z:Public Domain
%%score { ( 1 3 ) | ( 2 4 ) }
L:1/8
Q:1/4=80
M:2/4
K:Bb
V:1 treble nm="Piano"
V:3 treble 
V:2 bass 
V:4 bass 
V:1
"^Slow  March  Tempo." F(G/_G/ F) z | F(G/_G/ F) z | F(F/G/ A/B/=B/c/) | F2 !^![FAf] z |: %4
!f! z/ d/c/B/ d/fg/ | f/b/d'/[ff']/- [ff']/d'/c'/b/ | z/ ^f/g/e/ (b/g/=f/e/) | d2 (c/e/d/c/) | %8
 z/ d/c/B/ d/fg/ | f/b/d'/[ff']/- [ff']/d'/c'/b/ | z/ =e/g/b/ d'/c'b/ | %11
 [_ea][eg]/[ef]/- [ef]<[ce] | z/ d/c/B/ d/fg/ | f/b/d'/[ff']/- [ff']/d'/c'/b/ | %14
 z/ ^f/g/e/ (b/g/=f/e/) | d2 (cE) | (D/E/=E/F/) (GF) | (D/E/=E/F/) (GF) | (d/g/f/d/) F[EAc] |1 %19
 [DB]3 z :|2 [DB]3 || z |:!mp! B2- (B/A/G/B/) | z2 ^f/a/d' | d2- (d/c/A/c/) | z2 b/a/g | %26
 e2- (e/d/c/A/) | B/d/ g2 [Bdgb] | !arpeggio![Ad^fa] [Adf]2 [GA^c=e] | [^FAd]2 !^![d^fad'] z | %30
!mp! B2- (B/A/G/B/) | z2 ^f/a/d' | d2- (d/c/A/c/) | z2 b/a/g | c2- (c/B/A/c/) | z2 b/g/d/B/ | %36
 Ad/c/ BA |1 G2 A2 :|2 G2 (AF) |:!f! [FBd]2 [B^cg]2 | [Bdf][B=e] [Bf][Bd] | %41
 (_e/g/f/e/) (G/A/B/c/) | d2 (f/A/c/e/) | [FBd]2 [B^cg]2 | [Bdf][B=e] [Bf][db] | %45
 a/^g/a/b/ a/A/f/=e/ | d/f/=e/f/ _e/c/A/F/ | [FBd]2 [B^cg]2 | [Bdf][B=e] [Bf][Bd] | %49
 (_e/g/f/e/) (G/A/B/c/) | d2 (d/e/=e/f/) | (g/b/a/g/) (B/c/d/e/) | [Bdf]2 [B^cb]2 | %53
 [Bdf]/^c/d/F/ [=EB][_EA=c] |1 [DB](F/G/ A/B/c/^c/) :|2 [DB]3 z |:[K:Eb]!p! G/e/e/G/ A/e/=A/e/ | %57
 (B/c/d/e/) f/g/f/d/ | e>e (d_d) | (c/B/A/G/) A/B/c/A/ | c/=B/c/f/- f/g/f | B/=A/B/e/- e/f/e | %62
 A/G/A/c/- c/d/c/A/ | G2 (F^F) | G/e/e/G/ A/e/=A/e/ | B/c/d/e/ f/g/f/d/ | e>e (d_d) | %67
 (c/B/A/G/) A/B/c/A/ | c/=B/c/f/- f/g/f | B/=A/B/e/- e/f/e | A/G/A/c/- c/B/A/F/ |1 %71
 E2 (E/D/E/F/) :|2 E2- E[Bb]/[cc']/ |:!f! [dbd'][cac']/[Afa]/- [Afa]/[dd']/[cc']/[Bb]/ | %74
 [Afa]2- [Afa][Aa]/[Bb]/ | [cgc'][Bgb]/[Geg]/- [Geg]/[cc']/[Bb]/[Aa]/ | [Geg]2- [Geg]B | %77
 d/fe/ d/f/c'/[dab]/- | [dab]2- [dab]B | e/gf/ e/g/c'/[egb]/- | [egb]2- [egb][Bb]/[cc']/ | %81
 [dbd'][cac']/[Afa]/- [Afa]/[dd']/[cc']/[Bb]/ | [Afa]2- [Afa][Aa]/[Bb]/ | %83
 [cgc'][Bgb]/[Geg]/- [Geg]/[cc']/[Bb]/[Aa]/ | [Geg]2- [Geg]g | g/fg/ a/b/c'/f/- | f/e/d/e/ g/bg/ | %87
 a/b/c'/a/- a/d/b |1 e2- e[Bb]/[cc']/ :|2 e2 [ege'] !fermata!z!fine! |] %90
V:2
 F,(G,/_G,/ F,) z | F,(G,/_G,/ F,) z | F,(F,/G,/ A,/B,/=B,/C/) | %3
 F,2 z/ !^![F,,F,]/!^![G,,G,]/!^![A,,A,]/ |: !^![B,,B,][F,B,D] F,,[F,B,D] | B,,[F,B,D] F,,[F,B,D] | %6
 [E,,E,][G,B,E] [G,,G,][G,B,E] | [B,,B,][F,B,D] [F,A,E]2 | B,,[F,B,D] F,,[F,B,D] | %9
 B,,[F,B,D] D,[F,B,D] | C,[B,C=E] C,[B,CE] | [F,,F,][G,,G,] [A,,A,][F,,F,] | %12
 [B,,B,][F,B,D] F,,[F,B,D] | B,,[F,B,D] F,,[F,B,D] | [E,,E,][G,B,E] [G,,G,][G,B,E] | %15
 [B,,B,][F,B,D] (EC) | (B,/C/^C/D/) (_ED) | (B,/C/^C/D/) (_ED) | [F,B,D]2 [F,A,E][F,,F,] |1 %19
 [B,,B,][F,,F,]/[=E,,=E,]/ [F,,F,]/[^F,,^F,]/[G,,G,]/[A,,A,]/ :|2 [B,,B,]F,B,, || [D,,D,] |: %22
 [G,,G,][G,B,D] [G,B,D][D,,D,] | [^F,,^F,][F,A,CD] [F,A,CD][D,,D,] | %24
 [^F,,^F,][F,A,CD] [F,A,CD][D,,D,] | [G,,G,]!ped![G,B,D] [G,B,D][G,,G,]!ped-up! | %26
 [C,C][G,CE] [A,,A,][^F,,^F,] | [G,,G,][G,B,D] [G,B,D][G,,G,] | [A,,A,]2 [A,,,A,,]2 | %29
 [D,,D,]2 !^![D,,D,][D,,D,] | [G,,G,][G,B,D] [G,B,D][D,,D,] | [^F,,^F,][F,A,CD] [F,A,CD][D,,D,] | %32
 [^F,,^F,][F,A,CD] [F,A,CD][D,,D,] | [G,,G,][G,B,D] [G,B,D][G,,G,] | %34
 [E,,E,][G,A,C] [G,A,C][E,,E,] | [D,,D,][G,B,D] [G,B,D][G,B,D] | %36
 [D,,D,][^F,A,CD] [D,,D,][F,A,CD] |1 [G,B,D]2 [^F,CD][D,,D,] :|2 [G,B,D]2 [F,CE]2 |: %39
 B,/A,/G,/F,/ =E,/G,/B,/^C/ | D^C D/F,/B,/_A,/ | G,[B,E] E,[G,B,E] | B,,[F,B,D] (C,/F,/A,/C/) | %43
 B,/A,/G,/F,/ =E,/G,/B,/^C/ | D^C D[G,,G,] | [A,,A,][F,A,D] A,,[G,A,^C] | [D,F,A,D]2 [C,C][F,A,E] | %47
 B,/A,/G,/F,/ =E,/G,/B,/^C/ | D^C D/F,/B,/_A,/ | G,[B,E] E,[G,B,E] | B,,[F,B,D] [F,,F,][_A,B,D] | %51
 [E,,E,][G,B,E] [G,,G,][_G,,_G,] | [F,,F,][F,B,D] [=E,,=E,][G,B,^C] | %53
 [F,,F,][F,B,D] [G,,G,][F,,F,] |1 [B,,B,] z z2 :|2 [B,,B,]F,B,, z |:[K:Eb] E,[B,E] F,^F, | %57
 G,[B,E] B,,[B,D] | E,[B,E] (F,G,) | A,[CE] F,[CF] | A,,[A,C] F,,[A,C] | G,,[G,B,] B,,[G,B,] | %62
 F,[B,D] B,,[A,B,D] | E,[B,E] B,2 | E,[B,E] (F,^F,) | G,[B,E] B,,[B,D] | E,[B,E] (F,G,) | %67
 A,[CE] F,[CF] | A,,[A,C] F,,[A,C] | G,,[G,B,] B,,[G,B,] | F,[B,D] B,,[A,B,D] |1 E,2 [G,B,]2 :|2 %72
 E,[G,B,] (G,_G,) |: F,"^sempre"[A,B,D] B,,[A,B,D] | D,[A,B,D] B,,[A,B,D] | E,[G,B,E] B,,[G,B,E] | %76
 E,[G,B,E] B,,[G,B,E] | F,[A,B,D] B,,[A,B,D] | F,[B,D] A,[B,D] | G,[B,E] B,,[G,B,E] | %80
 E,[G,B,E] G,_G, | F,[A,B,D] B,,[A,B,D] | D,[A,B,D] B,,[A,B,D] | E,[G,B,E] B,,[G,B,E] | %84
 E,[G,B,E] B,,[G,B,E] | [A,,A,][A,CF] [F,,F,][A,CF] | [G,,G,][G,B,E] [B,,B,][G,B,E] | %87
 F,[A,B,D] B,,[A,B,D] |1 E,[G,B,E] G,_G, :|2 [E,G,B,E][B,,B,][E,,E,] z |] %90
V:3
 x4 | x4 | x4 | x4 |: x4 | x4 | x4 | x4 | x4 | x4 | x/ x/ x =e2 | x4 | x4 | x4 | x4 | x4 | x4 | %17
 x4 | x4 |1 x4 :|2 x3 || x |: x4 | A d3 | x4 | B G3 | x4 | x4 | x4 | x4 | x4 | A d3 | x4 | B G3 | %34
 x4 | BG- G>B | x4 |1 x4 :|2 x4 |: x4 | x4 | B2 z2 | x2 [FA]2 | x4 | x4 | x4 | x4 | x4 | x4 | %49
 B2 z2 | x4 | B2 B2 | x4 | x4 |1 x4 :|2 x4 |:[K:Eb] G>G A=A | x2 A2 | G/G/G/e/ x2 | x4 | x4 | x4 | %62
 x4 | x4 | G>G A=A | x2 A2 | G/G/G/e/ x2 | x4 | x4 | x4 | x4 |1 x4 :|2 x4 |: x4 | x4 | x4 | x4 | %77
 x4 | x4 | x4 | x4 | x4 | x4 | x4 | x4 | x4 | x4 | x4 |1 x4 :|2 x4 |] %90
V:4
 x4 | x4 | x4 | x4 |: x4 | x4 | x4 | x4 | x4 | x4 | x4 | x4 | x4 | x4 | x4 | x2 [F,A,]2 | x4 | x4 | %18
 x4 |1 x4 :|2 x3 || x |: x4 | x4 | x4 | x4 | x4 | x4 | x4 | x4 | x4 | x4 | x4 | x4 | x4 | x4 | %36
 x4 |1 x4 :|2 x4 |: x4 | x4 | G,2 E,2 | x4 | x4 | x4 | x4 | x4 | x4 | x4 | G,2 E,2 | x4 | x4 | x4 | %53
 x4 |1 x4 :|2 x4 |:[K:Eb] E,2 x2 | G,2 B,,2 | E,2 x2 | A,2 F,2 | x4 | x4 | x4 | E,2 D2 | E,2 x2 | %65
 G,2 B,,2 | E,2 x2 | A,2 F,2 | x4 | x4 | x4 |1 E,[G,B,] z2 :|2 x4 |: x4 | x4 | x4 | x4 | x4 | %78
 F,2 A,2 | G,2 B,,2 | x4 | x4 | x4 | x4 | x4 | x4 | x4 | x4 |1 E,2 x2 :|2 x4 |] %90

